X:2729
T:Castle Hornpipe
M:2/4
L:1/16
K:A
E2|CEAE CEAE|CEAc ecA2|dcBc defg|aecA BAFA|!
CEAE CEAE|DFAF DFAF|EGBG EGBG|A2AA A2:|!
|:cd|ecAE CEAc|fdBG E2Bc|dBGE B,EGB|cAEC A,2cd|!
ecAc dcdf|agaf fecA|Bcdf eBGB|A2AA A2:|!


